HandExoskeleton/MediaPipe-Hands/sample1/Right/sample1_RightHand_AngAccel.csv
Joint 1,Joint 2,Joint 3,Joint 4,Joint 5,Joint 6,Joint 7,Joint 8,Joint 9,Joint 10,Joint 11,Joint 12,Joint 13,Joint 14,Time
-35.41831625263595,8.151691069744901,61.110406338622475,-126.09501565915602,-3.1863784077180317,-354.6818333204409,1.5531706133746743,-94.14320449172932,-31.77440656649505,-167.11501493429603,-146.19559257946574,-115.60193898356229,-273.94852692059254,-3.5119277574966508,0.5270321369171143
204.09880137530732,17.47630383470011,-53.543902930882005,-78.62384628628115,-24.81006743922096,76.39475716064301,51.398425283398744,6.775067708261209,17.70727145274774,-40.54951527946976,-30.74073079354177,7.593008078268982,84.35489408358258,36.56475277021289,0.694951057434082
70.52510467156186,-142.131120548552,39.273373265679055,9.580851585343463,9.29083734875994,63.94585086436419,19.003354346822594,-43.75703723403472,56.02692237519567,165.78468051077638,323.4040011219559,151.3553609798414,-16.210727367577856,-17.96002996446906,0.8619041442871094
-5.422489016098837,71.97305538481221,-65.31996881137968,14.092006824751206,-11.336562534207301,32.65716697982015,-90.73803481002061,88.03642733803017,-41.818835467143224,124.26645316521744,-152.78581188983688,-64.71741604135158,143.95966933193517,49.508049242114645,1.0303699970245361
-148.2249955963693,-43.93923898810567,106.24542953314207,43.35139891009788,-0.6077482292380433,-110.93449046299881,-5.759798660042394,-71.30474508490686,21.934564856604343,-312.35908917824133,-162.57832497600407,-57.277887907696126,-127.45028442172011,-23.930423698554268,1.1939592361450195
12.28731733939937,-6.278927324655623,32.00713860582875,-59.897624050940884,-9.586112690367193,-76.08966997445864,-12.354237521722501,29.30612155145213,-11.617445716423521,98.28422467148955,1.1033138160016644,24.35031088443029,-23.572645798353935,14.373510622099001,1.361388921737671
16.396645791450858,29.024414305477272,-37.51101561176482,-22.229646964111943,17.14176373590632,80.20491495699136,16.320792261403863,-37.461915434015935,-30.677980306504843,-110.64406664273223,-40.63007945329144,-33.71395680706464,-61.61800278610245,-56.02872214840865,1.5245649814605713
-145.11468145953566,-32.14572766038884,-77.86686760512265,87.97150130139643,-12.204250222464866,-98.96083043203873,4.103587403159043,-38.73849040817693,-20.08124590417964,10.954377243499188,22.714979518315314,17.021296230340514,4.91703519335118,26.17760801303423,1.693817138671875
-57.21666526527223,-3.671688065761424,6.805171431478079,-51.309411882450036,3.3571207044641933,-7.913886251360989,55.736899464425896,32.451194937253646,27.83131746703355,-16.675816965130913,46.19445316936499,-36.948855338390686,13.518847321926899,-5.821081497598404,1.8596820831298828
367.46012222409865,624.95821547865,546.0918403954823,2017.2430293046739,1773.304695356332,2013.9544151806067,1926.2931001151906,1544.1226217890387,1630.7271379035437,181.45303726243063,-28.426518218855094,173.51713653598824,82.20452136596018,626.3710369362702,2.02656888961792
-313.1525757301404,1233.238353198855,-57.90592240574776,460.4911163101052,-1140.8322188280886,-79.06985941108253,-944.9392846213916,-386.6311863202025,-1341.1252084257856,-155.7181041777541,8.880169465961716,-85.67669125615154,42.66922168307061,-429.28086866090325,2.1952192783355713
24.468007690367067,-1407.9898865024156,-398.0447161625746,-2179.3859470678863,-287.7341924425437,-1466.5258238981232,-894.7268913525409,-859.067018963223,-207.75251030317898,119.55297721461469,77.09579388890141,120.818436988304,39.736355686287204,-42.63021897516223,2.362227201461792
378.93805272313426,402.49716226126964,105.91605328784557,-284.3623608333287,-303.22097398940105,-363.3198572804123,-90.28599344868663,-209.74185720803226,-18.73267005443547,-109.8155454072523,23.745872811904274,-94.88486218694216,22.91657864787047,-5.010473095803243,2.5268242359161377
-207.26232057865147,-829.9724557477077,-75.45428193835107,25.858144616384237,-39.98785730969965,-51.83722036627421,-62.690039642819556,-28.188686578757284,6.248223321928611,-44.939917030145025,-104.45915224965354,52.83638290652137,-113.65938945043682,-43.017270804204614,2.6941909790039062
-197.6760226090674,366.6906913021815,65.15302428801792,-20.479199936931124,68.34482685976809,-6.2039219689255845,117.01891305760455,-10.107951808709645,19.86435584528505,129.4832182810251,117.8913123519016,-131.1122719108275,-2.8794172409015557,-71.89627438574557,2.859869956970215
-13.007349460503972,-86.11299983139268,-223.057303100591,5.497805752868476,54.51566236957993,60.52956545122636,21.444724377909306,125.4422856698612,-14.257603345617857,-45.54888702414763,-3.538071014257744,-9.352247944863386,-32.514588255476454,-70.80538640546477,3.0281710624694824
269.0574777599669,-320.8504015887838,250.6108398018815,160.8794132555421,-36.3650342063757,105.58659537135392,-137.8130840627289,-132.06279650380722,-60.19800705252994,-86.60521871503671,-136.18369875386864,6.2636623751606235,75.07456024979504,126.9577023655478,3.1957669258117676
-203.65809657550543,268.75953501735796,-125.8256765800127,-23.596483311075403,-86.13750729251605,-48.758731740940114,80.21071036850641,84.45720540413646,-22.505769334511374,7.381452710587385,56.51879858790905,-6.34817903975481,-58.58630044265513,-74.56488983362712,3.361907958984375
-32.90717513235622,-244.16185133088047,-47.201670586468616,-67.66340463333091,31.626412395407982,-97.1590722898824,1.51431040152016,-96.87203190553655,-3.487651729936973,133.47976997428182,-73.42135076075404,-13.503100238168306,62.102852392318304,69.22929500657862,3.528456926345825
78.62676417875369,60.71208948725264,53.834732810811175,60.00707592585231,14.627934842940286,-2.197677968891528,-50.8630148219831,50.88993262599386,38.95777066959007,-103.29132769615424,84.899160215442,42.81095570529376,-73.90625513101192,-67.35744625851206,3.695276975631714
-156.89079189979194,-18.743378841271138,4.793401103306268,-132.3587620825663,3.4445717704601373,-26.82181671174394,24.599879650979062,-53.59776462487001,-27.907343968947277,-22.685145163697143,-82.17343770312412,-21.07981010253036,-57.91703511458463,-36.94294070394657,3.8630919456481934
38.81152961964301,42.88351011009161,-13.917453045434652,28.816180639962344,-32.243909132513195,28.11957997256619,-34.585339902336734,-42.68020322076151,-5.891771226667792,-11.208474018463082,28.408239732841814,-8.257890699957557,-12.237846641043742,38.16289183582456,4.029956102371216
259.0288150726445,16.525379834268186,-38.46215963652318,-35.89262534182845,68.04324202772739,-16.779962102001694,-18.624114877940972,95.36895828571441,128.94141032953337,6.509090445542566,104.18471343609129,8.300980100722402,61.41045934448045,36.138054937800426,4.194707155227661
32.56211833179746,474.036113139188,76.84911631930288,344.3183280726746,25.73170482295845,124.29523266115679,120.08104836272359,-87.21932477025005,0.7294881925416095,57.00433047977264,-110.82824899303502,27.92228664171948,-8.58434467079294,115.82106837687326,4.381150960922241
-71.07407622236805,-523.2598928353633,-99.17220283046504,-85.7201288967171,-44.94148909800046,34.29310093013889,-101.41515623920802,225.48145694671535,-56.60752270911469,31.35049039697452,115.17079032852175,-6.3672996801337325,25.60484048435991,-97.5308533834196,4.5649731159210205
-223.07870406342676,203.15736187385303,48.85212073850121,196.30969389487444,612.4656530914672,796.4675833337016,588.7379299805928,115.023966562739,447.97395096336055,-67.66323263557967,67.30787077808303,457.9278534774304,737.7686022700894,563.5057871580409,4.741636037826538
66863.07284855469,125011.58792693829,91373.1403566181,338644.61948625004,133231.37462923513,277512.8076504051,118276.7570264551,219830.12080483267,126900.0233079528,11916.004863094597,43625.77141966214,24430.01704317598,4069.052587280917,2689.2559898159475,4.743376016616821
-6686512.794596813,-12595582.108390212,-9160854.40934572,-34121465.08860264,-13447618.381117832,-28052486.909649037,-11927607.12992137,-22190339.62062411,-12803031.965373073,-1192907.3865763855,-4397328.551303067,-2501261.3199007823,-485324.5669938342,-320974.19321770064,4.929570913314819
-820.0071335971618,-739.3736569932655,-1040.4014987992027,-2426.2974878300074,-1005.0687334144073,-1411.0984570083874,-865.4297428608602,-1418.3961576341221,-964.0858913763674,-86.42323743241055,-186.79068553467565,-7.597207876605947,65.12505555010628,-64.83159643631696,5.09697413444519
125.43698990111882,-321.3738611933668,-157.3253795727209,-308.0906108109664,-428.00165524770324,-670.9437390782095,-429.7349697154442,-110.15754529821353,-317.4570320733766,22.582703172524365,-306.3738412834722,-324.6515742984708,-182.52837234294748,-100.94439680754763,5.262773036956787
-71.64231758410729,76.59585307756336,92.04978355473219,-99.89781691736032,101.57356612091702,41.888438182483775,50.97346289139956,6.170502177804293,174.40166729084774,15.132347919888126,66.2829195404515,159.96181988772958,105.52974941546131,1.4703602397681703,5.42995023727417
78.59070400637016,-162.01077791547155,3.108464058280643,-20.73143561403962,-78.67183196040637,-101.50276370426404,-156.14153686799594,48.33903699706279,-76.32725391695595,-100.48068582004564,-74.50148780322917,-113.28608649333363,-137.6796799006997,-13.353099128557915,5.595967054367065
-99.30106041618572,192.01747394835945,299.94790104233687,-63.421536818049034,230.92162778162148,162.12010073470898,215.12345984734634,111.81378453684783,-109.83410059676615,-17.88541892580673,42.91401222828821,-45.61499394736304,70.18081930922165,99.8373072849414,5.7652671337127686
-1.27453574487301,38.51297458070194,406.7731595420783,48.558122589257074,30.711145134653464,80.09621476557072,303.59152113899785,30.158938347703884,61.9819992208138,110.34541953100552,-32.8983167451166,46.95804007959639,158.17661405595018,-123.77160543617974,5.929558992385864
-128.5465177023976,231.16815262522044,-426.7481983943093,61.89437689045437,3.599560342265875,-290.2511979369417,-330.57660766418974,23.079046469702718,110.47982279170792,-130.61085639894185,67.50482064939008,-8.953687686157329,-121.63156638666081,111.03769694775715,6.095006942749023
74.27536700795677,-404.68269068895455,-91.70927247677737,288.6338958340354,-180.45396264160541,448.6247719299913,27.598516022104437,-80.46511974001113,235.79528515160237,42.471918571299604,-28.9000162816033,-40.399162885828396,-92.7880773699024,-83.52402660735886,6.2649571895599365
218.88885849696294,-63.355482939514545,106.68798759167498,-288.524369859499,-109.70111734636498,-360.5642876182449,-174.0944744801327,-80.58856525336499,-21.505279174641842,107.06049358202928,-35.912826573229346,22.981272363965207,33.69305826420059,179.62161559478065,6.43973183631897
22096.93846019212,48621.85966194455,51965.90049634912,55497.80148121272,27721.768646582557,50728.83560274695,62437.75590260068,97277.83767553841,111714.63075554589,19417.545273714462,858.5473069372118,4167.913903979496,65703.97341763665,173474.43157056463,6.441205024719238
-2644435.532845496,-5712642.237254167,-6154175.002894357,-6507171.775399137,-3276742.2120485534,-5941236.7358720815,-7332786.608303738,-11445954.773986774,-13161302.791531397,-2288463.1183299916,-104577.42231608143,-491766.68411484273,-7732427.749178264,-20435376.064547624,6.6143670082092285
-145.50042051138462,-207.72164505556913,-400.85895583418767,-713.3583913928134,411.8548530330779,-702.277750923352,-249.82674291450678,-794.579057287077,-751.3399124549051,-96.58951253697184,273.77358363825084,388.755436164107,-366.5164050527219,-1185.1104618622792,6.8104329109191895
253.87949247081804,-111.00123307299779,-68.34296684955649,63.724608535279536,95.18167647672496,41.42223485266266,193.47047277267131,52.74465543579085,-27.881744683714853,-165.70279221275578,18.163154412830387,-288.25276711889524,-155.9360007028277,-122.83047510028598,6.996844053268433
-237.31049697470002,-72.33759303264564,91.91598149253137,384.8640227748069,157.31475504869942,473.55832338837297,244.14595411257798,407.28211629325034,783.7500965177271,37.21871902776362,-192.91368305945892,115.88758264847138,7.751500664096568,62.78193707465068,7.195633172988892
116.55428759459389,-13.524393022296472,158.58156923778787,-341.6639533904613,-304.2115408209613,-498.6494334218035,-784.8758192270304,-496.5812011511189,-834.6164900240058,-21.794572534053202,-100.35473464205973,-185.19082447149478,5.833205961948933,-158.71557508207906,7.397089958190918
-5.494549742849913,-9.40098530774964,-60.37727721409604,-8.012324427417315,-368.2084385028665,109.90521686435574,98.59304299541188,20.54183976576922,-187.84147480336762,113.32092146376547,5.592650759226531,33.8604632622473,-25.18326407297018,68.66639523564574,7.597072124481201
-147.86124088884011,-28.4266369243115,-0.7452141024079199,-66.57296860278032,18.599032299391368,-95.42952256415793,-44.41631638021132,0.2991896539517433,17.130143824582785,-73.93454879710242,-9.980403877674807,-47.82407473707137,14.49492907119044,-67.52978523833394,7.798263072967529
1.5373873119384167,7.823753517194739,-13.833303551870351,32.09118645140819,12.857278012026637,163.7805947756449,254.3352612187903,78.949057567968,-5.537836925591868,57.56436662797349,193.59088137174015,6.568182344283766,118.38767926237436,39.80028731864634,7.9968931674957275
58.9630317683965,54.25476628866688,-92.95857366623946,7.527772797494861,26.011425397946315,3.583760895523189,-93.60876998115421,16.543535944901762,49.29024992022492,-99.9683076948421,-150.65867657052496,35.4768751648514,-98.23074617525208,11.413082363010673,8.197206020355225
-34.53109275458483,-60.40795955206782,-23.113529533717326,66.85579486245985,-32.33055370513393,-105.65656087591512,-200.59332940318424,-123.23016443980771,-99.847934700805,48.37954299359379,2.4662749659424246,-54.28564110148476,-11.748882157185601,-10.813343242487207,8.3993079662323
-17.286843178974074,-3.073148067772418,-13.540884597360552,-104.96358118482415,12.783266064306083,-58.36779117378632,77.84400670662907,-21.619802832184522,10.384846086940325,-31.771595940554224,-39.1624035185384,6.4989769984939345,-42.66942356643335,-18.293641265069486,8.596765995025635
4.7306024379874625,14.655128920223579,95.9543928754494,0.49431387079944555,-22.322931153023923,30.979684224183085,-85.52439397796086,44.25842954616309,139.12812486967286,-24.205991216286105,34.78103344079389,-9.244966543028811,-2.0786313116269293,-19.943642128911154,8.800212860107422
13.3262245935762,-1.6867242377755567,-119.56353246255229,13.864668423898863,3.879722297203656,41.49631091664362,102.83577309673304,30.912429641547767,14.560288648002242,2.266392726482293,-15.713896719247037,12.345134938854397,43.966755192376525,2.5790837962406026,8.997588872909546
-4.217439246453159,29.098547766271402,43.82329440591933,219.2294132537961,39.07080625852446,183.49093337406416,55.43339784132584,-78.61255529422789,-72.6942139121432,4.733929909143588,6.0393421951500725,30.09903434318329,-3.923701578997373,19.442765760402946,9.199166059494019
59.68315996948955,0.6154901824136759,-53.74674118683811,-172.13165668112168,-59.27871251551921,-273.17123880336993,-159.02093138181547,88.53043493632887,-45.125200884410866,12.405556127686232,27.189389082698664,-0.6261298847463775,-18.087372649864427,14.53899114582226,9.398150205612183
-79.46654403903732,-27.46843472505983,88.44337029106356,74.10287186597384,5.311634160799747,321.46691945824676,81.24522563446001,44.1962509156733,-43.949539367962245,11.733617838377608,13.528512770943612,-32.12318926740649,102.62035064410303,-41.117702856487746,9.599458932876587
65.99158272112774,-7.256964807717123,-77.62748070283745,-87.69173087912037,118.47485223637605,-307.24049014903403,15.792863325759297,-49.20984987107344,130.9951126296701,23.63055848714912,21.502868734083524,-0.44771698805672033,-100.62977919526469,63.05423484138204,9.795963048934937
-50.068328524789855,0.010292280201990042,15.069216713291846,-83.43851354441932,-55.335206653675094,26.864950824376116,-64.09424972836722,-41.05339778557765,-23.670968564806227,-49.46209266225753,-23.11313774084613,9.423426419902732,-7.063389804199839,-15.021252133733984,10.0000319480896
106.38597152405268,19.915516022859816,22.757191820396166,163.4488160169192,-60.26846107704313,194.51086089332674,39.08825453233592,-33.50864177229131,-74.161776404811,15.720441041966817,-68.29813490659474,46.30646528275643,116.61176407054151,-30.491730758332487,10.19835901260376
