HandExoskeleton/MediaPipe-Hands/test/Left/test_LeftHand_AngSpeed.csv
Joint 1,Joint 2,Joint 3,Joint 4,Joint 5,Joint 6,Joint 7,Joint 8,Joint 9,Time
4.115129899381815,-9.665285949713972,-39.73787124835371,0.0811293761115963,1.7714152999612897e-06,-56.55804639858911,23.9934264239913,-23.343264406308982,17.843219646631436,0.14167547225952148
-39.214628870423624,3.566854471825102,39.30990841723221,0.5186609114774625,1.1142614260295953,-18.029308874227134,1.1966195455674637e-05,-50.16208384951776,47.30289709717353,0.20492196083068848
20.215877183758316,13.19095144903786,-7.373807180873858,-14.449714297693625,24.030097889543825,0.7828525464332836,-0.7828043946537683,40.6249824330941,-45.90500864976831,0.2700943946838379
-14.943493840180382,17.35508358748225,-31.659519294476066,16.890415260525565,1.1123409439826686,26.59308478966622,35.59965630468076,-0.7704998067364504,49.52649702827016,0.33344483375549316
31.43120810764454,-23.04709094394814,49.66811492109826,16.221952745659323,-33.972015420136884,-15.738867636311348,-0.010699209946997697,25.976429226730296,-11.256166163306242,0.39859676361083984
-31.265842591182732,-38.29105324019299,-42.054281099284346,-45.08256410270204,-1.4897475581159434,43.04285125602923,-3.6374588669058188,15.335828258031416,-30.286390994466867,0.46274495124816895
9.966672143398926,-18.800036068604413,26.31501766871101,19.155986535102784,27.549483336562496,-46.81177732689666,3.8245470052236734,11.249644877174939,-11.249615127864308,0.5241050720214844
173.53590368223246,-72.80321975031582,-6.1834146230585505,-8.669373048266564,-24.539562973620253,21.00745173473189,-4.446813856415623,-17.244684893911224,39.2675685292067,0.5890719890594482
-31.012168565163897,-12.93355325378025,-4.592957212089302,-7.383276448897967e-06,-5.476493223332482e-06,-39.030166008832104,-33.3427238986919,-23.124909036314545,-2.1405106149554776e-05,0.6529622077941895
4.319657360102661,22.916102007175862,4.7376327561238786e-06,22.44388353625667,28.56666875887862,30.89638112293623,3.6548139994875797,3.703237725546452,1.3551196955815432,0.713477611541748
-27.458185329935645,55.604427450780214,-37.919281550091284,-3.909920069901801,-64.69020904191271,30.950792980550407,2.5136138345377192,22.22592392474934,-14.286710306036456,0.7760136127471924
57.63235671010256,-22.459479561951422,-2.8250955404458423e-06,23.737361125666165,34.45974358705482,-51.71124578043173,31.89148231613918,11.916661316250169,3.536971580449221,0.8399453163146973
-11.903951848647663,22.67372571661797,-1.1719173240887819e-06,-2.027553983058538,2.7667988148802496,-3.4524260624106306e-06,-36.06767252316764,-43.088764751059145,-19.504453623703466,0.9032728672027588
-3.720184764626832e-07,-22.8816030192623,41.4735805912792,1.1597589041543392,1.7625566443803033e-06,21.839044315468616,-6.086551348042225e-06,9.19383003975372,-6.429807912911509,0.9660251140594482
-36.305645992063695,6.8932066986544616e-06,-41.16003391593986,-17.29850961599007,34.731532223604724,-21.673939913617243,1.3918698182940084,10.553627652757173,-4.172435036474904,1.0292553901672363
-15.903274943305652,8.546455834781194e-07,4.082558958821161e-06,17.433776672799944,-19.917136574292968,20.412429488797077,-1.425098239969137,1.874142230809319e-08,30.806545367678012,1.0910110473632812
31.85920136161433,-41.84319717799525,69.6026808249734,-21.764850761471283,12.148694816156713,-20.05518382019145,1.4001616846943739,-36.69733951561629,36.69720815693924,1.1538667678833008
-44.557354494138195,48.376633287603035,-71.50142943285756,16.012980600176046,-10.921995858894633,20.60227206100547,-1.438356434261903,3.1542415233539744e-06,8.11432605612333,1.2150533199310303
-8.85948666857125,-2.448625253832445,2.448638420725651,-14.765006220812317,11.171432080132988,-19.613401743758534,2.33276047265608e-05,-5.062260220114831e-06,-6.9383781811457705,1.2866096496582031
60.52678963007756,-33.897261973893684,72.02726410073772,2.715910937415402,0.7944032387000249,2.5736365837104866,41.15258373420502,56.2673917680406,-20.585378531315023,1.3421266078948975
-24.686122061528366,64.61173631400487,-29.61426440269286,-0.9642800604438099,-8.318648814879548,81.35889184318175,-26.67804704432408,-1.4098338053649915,23.864908993665022,1.4091880321502686
20.772039911420634,-24.92479831015013,1.5938858025919953,22.82544232483621,5.4176718890048035,-77.99547640228093,-4.186397756308463,-34.51150119116247,-10.603914197507342,1.4690003395080566
-5.447981579506206,-14.171907864150494,-4.938900305014816,-1.596393298782577,-38.038344410984195,1.6952181857243694e-05,-1.004701162505844e-05,36.936404960917784,-65.69727891338916,1.5321624279022217
33.130954670702124,99.05116482603155,-33.75549679324856,2.8656407572323994,34.30850422895194,-2.6635040367710556,2.4350025208425766e-05,-36.440534796501375,28.013788469668544,1.5961840152740479
-44.26739584926235,-28.213614369995682,64.42747506601233,-2.9791672926297315,-35.66455511202922,30.231853791671835,4.065730861778492,74.67272848385383,-36.416515533745674,1.657771348953247
53.24194669423856,-18.646495229682333,-2.6683820800876738e-06,-1.7762686437319903,37.3052882849191,-17.979519177192778,-37.5762098796605,-61.04362027973953,37.171195970952176,1.7187302112579346
-6.619943784153466,35.07462330832576,-49.70477161346024,7.3550296082209305,-2.707683223629905,29.501630256388548,6.871658741403706,20.282484635038184,-11.011163544170415,1.787139654159546
-1.7826608768036685,-56.68190819461547,33.52922372173884,-20.803897156883483,-3.8639152310911076,-26.84560676560583,40.88911804830449,-1.7495156907790148,62.79098596616532,1.860185146331787
-27.61802170386752,46.44290771876884,-28.375584697202253,-15.530787634523755,4.1788454138147735,-1.9411975280984965,-13.24706251249971,-21.110588832968364,-35.46035729965335,1.927725076675415
-38.87413227488949,10.56932312438796,-28.457810516333225,13.425668314907687,3.4411961584489448,17.19139337936618,-1.213238448702336,9.397400832845044,-30.96343595459262,2.0002713203430176
23.117772861814213,0.14182895590155428,37.63125726941012,-4.4930539639998,-11.239295329985463,-19.636255214286397,-3.687135694956116,-0.6417731312997883,-5.604816550850688,2.0810036659240723
39.106207557429485,6.191956050935707,-23.022293040650336,-2.084748383900383,27.668109054917274,35.6829355024336,-34.09372226617869,22.97799807966414,-1.1015143541110017e-05,2.1456077098846436
-17.727834740613247,27.2785450806224,42.339152553734834,9.161651747922512,-11.35221889677505,-41.55023653302032,-9.035558916363135,-37.14834203026538,30.07764775792615,2.207700252532959
12.350623149011888,0.6088484824170423,-28.318300812924495,18.477434113417168,-10.225938044560174,-29.230764454638173,25.228384839215202,-17.304444173046786,-28.384411143572134,2.2728686332702637
-23.37428127197158,-59.80418602595874,38.88942494772411,-34.289439974528875,15.498431783380477,30.720038030013118,-30.72001885082454,22.140982648067563,-0.2875579521982701,2.3348777294158936
-22.762229124344287,18.377918110232212,-14.447759916679836,4.806008313176801,6.412142756931626,-19.299542742425764,38.09064790181542,11.910204520671577,3.863894215807935,2.3990421295166016
45.511113424154175,15.976774750424788,19.02024962592795,36.51652237434916,-0.007917292357817445,73.94748495506846,-23.295590043910778,-15.54241637458746,25.783633469923043,2.4615273475646973
-112.65864614583462,-16.453927886050312,-64.52257483338734,-52.2441550166996,-8.22343659144938,-65.02340839141701,27.270214699211373,35.7939187898412,2.550629922427598,2.522200584411621
51.1652640850557,16.811691256896488,6.440886288520457,-14.85212472202258,-31.274541533365305,7.2784021054242,26.82730356355658,-40.6283512095002,-4.585969571180114e-06,2.5933642387390137
79.02989888501521,-31.14069138930585,15.694175538360785,16.8543039084015,25.10721170967557,52.50249826413305,-36.997477992858585,25.376234773576392,15.213342850694614,2.664130449295044
-71.09298036253786,3.5238634736643037,39.56886317958304,-25.290118372058494,-6.309402689161182,-21.74608503187046,-20.185666562551045,50.06568314657931,-84.72304203700352,2.7283434867858887
-906.8828702904344,7.152201708328089,-11.772700729697133,35.71476401973361,-81.47613326964627,-142.87332991117006,-202.0049858452945,-46.80561174030398,-56.870212164467084,2.79087495803833
-43.736158903146304,-2814.2162541356615,-101.08420576198641,-2767.7005008828473,-70.3069761195068,-2528.3790704743838,124.68581026853386,-2293.3828670948615,42.50554216688628,2.8535239696502686
39.30799472490956,42.05803607365399,34.79670707816144,6.311640644756888,-225.23940796957228,28.694678368625055,-100.67233479386212,47.5741246563103,57.766423557942915,2.917177677154541
12.430921242667814,6.357835414556108,-226.13909958300778,63.19515381097968,-460.0109586948834,2.8840857396049824,23.23079414093083,104.1918038509948,83.80474077561516,2.981189250946045
573.3719009143564,2773.002093636445,253.9209038452851,2648.015738355725,739.6121207208045,2613.013834219543,70.63407454220703,2068.096575426951,-9.00613324413252,3.0447940826416016
358.94315350640204,-40.05543719876988,-29.966885240459995,46.653906367305595,103.80298583178491,10.423990830044488,106.3428119626158,75.27624090814906,-77.53629068602456,3.1068153381347656
-89.115779660111,9.351784493453016,1.4651653555802062,-35.37557222178181,-10.559533510693125,10.97332800337467,24.67586554672698,1.1955080225851733,2.982119610755685,3.1710503101348877
45.35627324023104,-14.828025557383171,46.75562576849248,5.870887825489285,9.909945223568121,-8.636972900271195,-54.09834825110018,1.5382764532230881,-59.84256208010425,3.239595413208008
-22.295964430517166,6.5932097624021875,36.82863531590178,-5.6415081535570835,-21.690856413744314,-43.356801041034586,76.60306515726427,4.429008170032796,84.46402346288308,3.296314239501953
22.602386334623723,1.862683774041405e-05,-35.741454351204744,-36.37904570757437,27.97851178158164,16.40601847247201,-4.3734125370304975,4.404324408990769,-9.387253141230289,3.3608474731445312
64.59159840763681,-24.380266372871233,31.135825225579076,35.86735232008944,-27.63603852556289,30.443876709701517,-45.45727052681064,4.6474714830204436,-23.503423841312493,3.426180362701416
-90.52781581011631,11.605006333624297,-74.76835441013367,-15.182122857902565,-8.824977438667155,-73.89914777146146,53.155534747989606,-8.883680251426087,17.953043378808562,3.495173454284668
50.839299344413355,-35.71492610184914,41.485086560216175,32.099575469630025,34.675054781443606,32.11436188633275,-22.60631321632477,-64.04406397578158,50.245923389475486,3.5654733180999756
23.058788728708013,-58.39012068343823,-24.834354727460827,-23.94389499905312,-54.00274089459217,-88.83478061525531,29.34155206064745,13.646406223096093,-88.48595725930782,3.6301445960998535
-1111.1133951624001,-2487.1646591230738,52.09389315094963,-2554.0458106594874,27.481526579164925,-2347.584293506315,-1.0664534398994214,-2281.1701763388505,79.27565621668214,3.6981120109558105
53.32426508448233,557.4903259570822,-421.63404640209734,760.6506320716237,-724.1111066901807,1036.2817404289385,-403.06688512460494,1012.389300211596,-378.80381824161896,3.7593259811401367
150.95764499500945,692.2313231038629,-597.9279578140813,845.3785935974638,-793.3408621617262,1253.843535609649,-1565.4910729921405,1266.808534083541,-1993.334875367326,3.82239031791687
-24.857621460558008,-1048.0186420509244,434.15749520308,-1461.9643935498166,789.6459913063696,-2109.1135279605587,1503.1752765019296,-1842.7920328196656,2166.087556270657,3.8819422721862793
-4.8198578065292645,32.44769850880154,229.0235626149057,-80.3584103393689,647.3528469798254,-25.742747764212883,321.3343011181465,-156.99366572461764,174.03930768958236,3.9492242336273193
1021.9848770235575,2410.928898575724,-1974.91678740171,282.85869489634626,-2132.908868143389,2334.656705652363,-2237.818711920623,2125.7936016597214,-1724.95301434324,4.012274742126465
-137.02514044833856,110.42233024615781,2361.0414737591113,2448.800843032994,2258.9891275155787,81.39003089250677,2501.8078619159596,18.377683478088937,1899.7749271495823,4.073405981063843
-74.3264999593272,8.627793418679886,-2.034859106171368,-21.720096646690006,6.502104288185324,12.433374983187836,-19.109771545661904,-28.352273649118164,10.328686061514446,4.13445258140564
-36.206406842716646,27.728494218806308,13.651725241847641,28.15478483260272,-30.68616611863054,-3.2781614928855456,-39.22421875445096,-12.037101077490526,-74.76052104894165,4.19985818862915
97.67417160716775,-35.873559690183015,1.6225786198326573,7.533170445898122,56.18335592400032,16.834259935099123,50.45281702022385,0.8687870557161959,68.62772725148935,4.261685371398926
65.31849100351172,34.78985211540654,-60.98222776868086,-13.928499268743003,4.297706663313311,-40.5749717104206,-9.785077858123092,-121.20731385930955,-125.285673867851,4.3257505893707275
112.35768780399597,-1885.2727592771112,-227.70923681468994,-317.0601946494536,-122.81296939965469,-127.3903704380685,-36.42095816362267,61.793692974218054,58.25372448764061,4.390271186828613
-34.91649772906875,2022.1829689794827,342.2317980947784,354.17263441645036,80.57379663505655,161.43422164753517,-26.961431896037904,106.81405492793887,80.1510815474257,4.4501731395721436
-4.769495492112375,-61.07163272629747,-6.076751770747587,-109.69944060008338,-24.073433576641296,10.360531553786545,30.081474742116853,27.137794687680532,-86.22608613567304,4.515013694763184
-146.2024957206691,73.23257535570767,-15.033671386495623,91.04967736138993,58.22754772137188,-35.38838938381824,30.68670086506978,-77.021760706955,122.34464685773173,4.576026439666748
7.641890908656784,-67.23705829110853,-7.952157653785554,4.91574168387388,-53.81718904390352,31.642077546815653,-6.7550207512020535,75.20712413461733,22.519735244118756,4.640164852142334
197.66602792835738,6.437899126465823,-70.40060758927056,-2055.4467118685993,-259.9361005272655,-1775.664132735285,-280.90318350210924,-11.184092866910461,-21.84516679556136,4.70386815071106
-151.14379457208616,23.708471277585474,95.3150377514107,2135.232482620495,311.47927134092015,1828.026965192956,242.62665479016962,-34.17772224784521,-51.0512071228099,4.765894412994385
-42.21828120446577,-1960.6296273992366,-408.06199923131345,-1505.0128443317485,-512.640450288984,-1276.5207408739698,-519.525433282407,-256.0748554578562,-324.6634290571306,4.826526165008545
-26.99801494584947,97.87710668278444,-124.98178599869573,600.6909015125442,99.55829761939466,-389.00545658105295,283.4064553372272,270.8348917128918,221.2785964666131,4.889865875244141
158.63054473240308,1796.7520632239143,495.69887601004984,834.8079407326946,359.6953698583147,1575.9522015512139,181.39323903750824,-13.666773780584997,47.677115451213844,4.952955961227417
31.268839179497373,25.304517892087624,-4.411253018511108,-60.06317280055485,5.445293208133414,-11.381206495176787,52.427966168639124,40.52713974718806,-36.323913007802695,5.0180065631866455
-98.5222408173272,-34.06084039409058,-20.47320745707013,37.62944201514727,45.1706674505181,-45.254810428257876,27.76194272489063,-51.1561376475492,56.179978448993175,5.0799901485443115
-13.912400030350486,6.303437880282787,-25.693635151314027,-30.209865984376933,14.526209142982612,46.53524314252791,-12.106316466537576,32.854262575451074,-31.747293025914672,5.1440229415893555
-103.40680441212433,-6.688780731195223,29.428682420431027,33.79640027298358,-0.027005434969454723,12.243641399817493,-31.737880546896687,-9.847653977290522,64.07253043720164,5.20907735824585
56.16062354080561,-43.17785396140498,27.684723774799313,8.631582733097474,-67.90066726785572,-16.967466504637624,62.8695917431331,-53.093078615449706,-91.14140058538995,5.273812294006348
5.952602715681764,16.37267808896499,-47.35963314130221,20.966341313639926,-1.435977585668816e-06,54.48849193726886,11.0621239610087,67.71067770290182,149.01882833190493,5.333176374435425
40.211433309930165,-7.556830327968282,54.989387722502265,-25.85024645647423,27.242621801308758,-22.608171270183256,-14.65902435402937,-39.3384528025126,-59.60556531412909,5.3968892097473145
-14.507381566208284,13.01319536259853,2.9654022609547983,-42.93333451432067,-7.323310791529851e-06,30.608515551983007,-13.795882716514484,54.67714532351387,6.1478363288240345,5.45982551574707
137.68207696240367,49.58914738702806,-44.71060837506113,-2057.857893312062,-161.22804584341955,-2066.2818276808543,-177.20790048696978,-25.22393493190976,-27.25248164775585,5.5254316329956055
-54.367591555021114,-42.771807543842634,52.92764433338935,2292.9340359132425,131.1231229842638,2221.227580142889,187.68664369923565,10.67580354036832,17.238425910867075,5.585381746292114
-31.031558381518554,-5.6415803763349714,1.0550178378206523,-250.47844534567284,-682.1734552174454,-317.1813363383607,-88.49959428122405,-39.56737880068555,-29.919099442209912,5.649908542633057
-9.155106425336614,-12.171921717679341,-53.62150396477428,258.0207193141611,788.3054672578461,331.536146939764,102.39313936688673,46.75683481779555,42.28906179451249,5.711990833282471
