HandExoskeleton/MediaPipe-Hands/test/Left/test_LeftHand_AngDist.csv
Joint 1,Joint 2,Joint 3,Joint 4,Joint 5,Joint 6,Joint 7,Joint 8,Joint 9,Time
0.25746444652938294,-0.6047117730026343,-2.486212896645185,0.005075885920632572,1.1082917694693606e-07,-3.538572649914016,1.5011565626456616,-1.4604789636074997,1.1163668664049453,0.14167547225952148
-2.480187576675803,0.22559102058730218,2.486213673444098,0.03280348141007039,0.07047312254667304,-1.1402904776598461,7.568198441276763e-07,-3.1725756628944453,2.9917421406394737,0.20492196083068848
1.3175179185418813,0.8596864107725253,-0.48056896074137967,-0.941723049263345,1.5660999651910004,0.05102040579919276,-0.051017267630527385,2.647628980406182,-2.991741139755277,0.2700943946838379
-0.9466768960400032,1.0994521653922789,-2.0056444481026006,1.070015222856881,0.07046728719868156,1.6846835976951127,2.255253857701547,-0.04881150106137966,3.1375253324219443,0.33344483375549316
2.047803865898061,-1.501562452549905,3.2359735393866913,1.0568915274019446,-2.213342365697514,-1.025417600243543,-0.0006970741759744215,1.6924144948723097,-0.733360948311855,0.39859676361083984
-2.0056471371783857,-2.456301668082858,-2.697705914909875,-2.8919647812320477,-0.09556460589027438,2.76112089881741,-0.23333639391734096,0.9837655886700531,-1.942817092370575,0.46274495124816895
0.6115562064269966,-1.153572483712253,1.6146926623040372,1.175413647325911,1.6904396247739157,-2.872376310391928,0.23467466614374644,0.6902795683203635,-0.6902777428990703,0.5241050720214844
11.274092657631684,-4.72980073761542,-0.40171738482757746,-0.5632224395978938,-1.594259751855077,1.3647893740293568,-0.288895786893022,-1.1203340128485593,2.5510928669195323,0.5890719890594482
-1.9813742330669868,-0.8263275464014441,-0.2934450409196927,-4.7171914729915443e-07,-3.4989434993804025e-07,-2.4936458435575446,-2.1302739230995087,-1.47745549655113,-1.3675769139354088e-06,0.6529622077941895
0.2614058091977256,1.3867771652844851,2.866997590444953e-07,1.3582006738597556,1.7287234936663083,1.8697069779929336,0.22117254480122028,0.22410292613463412,0.08200561550438579,0.713477611541748
-1.7171251108921695,3.4772785420900334,-2.371320236726092,-0.24451076620457002,-4.045466990625499,1.9355388271411584,0.15719135778667237,1.3899204053502388,-0.8934337329201298,0.7760136127471924
3.684534745086978,-1.4358727896351127,-1.806131706416636e-07,1.5175699349609033,2.203070112019816,-3.305988036340949,2.038876793763734,0.7618524587848583,0.22612461860796884,0.8399453163146973
-0.753848116464269,1.4358715191410738,-7.421465397783322e-08,-0.12840002804043138,0.1752145927463573,-2.186336871545791e-07,-2.284077367124837,-2.7287059424764095,-1.2351692793989173,0.9032728672027588
-2.3344995270235813e-08,-1.4358720011415187,2.602560367294757,0.07277747704773674,1.10604389647051e-07,1.370449099998467,-3.8194477269826166e-07,0.5769334922130724,-0.40348489339211824,0.9660251140594482
-2.2956160203497973,4.3585936282397597e-07,-2.6025603091107996,-1.0937895392722794,2.196084372145066,-1.370449205081627,0.08800831291682698,0.6673087904226236,-0.26382421939811707,1.0292553901672363
-0.9821171956932346,5.277919967738853e-08,2.5212111154360173e-07,1.0766343358378379,-1.229995858608845,1.2605829980485908,-0.088007878378221,1.157388851424912e-09,1.902478455120729,1.0910110473632812
2.002533056776656,-2.6300843074841396,4.374926653378651,-1.3680453766229732,0.7636149660473563,-1.2605830291795712,0.08800817153598928,-2.3066377164218466,2.306629459777554,1.1538667678833008
-2.7263108898647204,2.959999390545846,-4.374925933480597,0.9797790709319543,-0.6682792680853424,1.2605819917621943,-0.08800807082815254,1.9299716313980753e-07,0.49648763356523773,1.2150533199310303
-0.6339523492697765,-0.17521463604151677,0.17521557821606848,-1.0565296535602045,0.7993866774507126,-1.4034630422478926,1.6692377755589405e-06,-3.622367614752875e-07,-0.4964848769018886,1.2866096496582031
3.3602632520941995,-1.8818728773429427,3.998734612984009,0.15077911408707223,0.04410285142600401,0.14288047473428378,2.2846662725039266,3.123794438874029,-1.1428376002095604,1.3421266078948975
-1.6554865047880298,4.332955060829647,-1.9859747491197197,-0.06466599423441721,-0.5578604374060774,5.456043162842462,-1.7890678311441661,-0.09454546295114596,1.6004147868399912,1.4091880321502686
1.2424236356301321,-1.4908096973575766,0.09533398751784716,1.3652423719105684,0.3240434561888037,-4.665089407090335,-0.25039810932227624,-2.0642125166244796,-0.6342445751769219,1.4690003395080566
-0.34410589409455383,-0.8951272972294362,-0.3119512576353145,-0.10083153464955785,-2.4025812720542774,1.070735208941187e-06,-6.345902363591449e-07,2.332980475104165,-4.149577337983601,1.5321624279022217
2.1210963091623682,6.341412803190934,-2.161080487228361,0.18346287011542017,2.196484901090514,-0.17052175640534983,1.5589272663873999e-06,-2.3329808823502844,1.7934872061267413,1.5961840152740479
-2.726310879277719,-1.7376012825011742,3.967916404998789,-0.18347897013734382,-2.1964848562047337,1.8618992672084573,0.2503975232341702,4.5988942458713495,-2.2427960936105364,1.657771348953247
3.2455684973676,-1.1366691351712177,-1.626615357963601e-07,-0.10827931566939242,2.2740879317970553,-1.0960110338269828,-2.290603003986263,-3.7211496432122715,2.2659138168938284,1.7187302112579346
-0.45286666631392336,2.399435440506437,-3.4002757356286395,0.5031534780232505,-0.1852311008825609,2.0181900905288614,0.47008634630941515,1.3875134745434536,-0.7532675637552302,1.787139654159546
-0.13021534112232303,-4.140357881337479,2.4491586489075985,-1.5196309069252436,-0.2822415897668691,-1.9609505588561262,2.9867657523272726,-0.1277942346960117,4.586598473878837,1.860185146331787
-1.8653192621080166,3.1367507522811877,-1.9164850139087548,-1.0489483150174124,0.28223892816583884,-0.13110834583099518,-0.8947056793519153,-1.4258076992916529,-2.3949900619787456,1.927725076675415
-2.820172272380745,0.7667646907834751,-2.0645072559643722,0.9739818049737039,0.24964585501885495,1.247171013085108,-0.08801589212646377,0.6817461306617076,-2.2462809695480814,2.0002713203430176
1.8663520277443126,0.011450184281244447,3.038059666523594,-0.3627347853359595,-0.9073746746679205,-1.5852809418775564,-0.2976711131294394,-0.051811850220730093,-0.4524899867016927,2.0810036659240723
2.5264191521713997,0.4000254009165758,-1.4873332316713288,-0.1346831762402303,1.787471733689756,2.30526193384145,-2.202592332063716,1.4844715980645447,-7.116228175618744e-07,2.1456077098846436
-1.100766334693816,1.6937942238025414,2.6289456356363132,0.5688702518868922,-0.7048881360010171,-2.579959833974158,-0.5610408273656446,-2.3066350118284618,1.8675976261700384,2.207700252532959
0.8048701117177757,0.039677669713483965,-1.8454578092101883,1.204144461351632,-0.6664078238839863,-1.9049215872223328,1.6440929885892217,-1.1277026063165465,-1.8497661124085027,2.2728686332702637
-1.4494180547286817,-3.7084035211948105,2.4114980906316816,-2.1262571801603656,0.961043746562126,1.90492179180049,-1.9049206025163414,1.3729423217827446,-0.01783120870530297,2.3348777294158936
-1.4605247767184153,1.1792080906429874,-0.9270318478528168,0.3083746402940051,0.4114312933586177,-1.2383435822857223,2.4440635720672788,0.7642111281456323,0.24792445440991173,2.3990421295166016
2.843771845919889,0.9983122539856026,1.1884844452053187,2.281742862919373,-0.0004947137393287449,4.620624721525729,-1.4556300234528123,-0.9711712761603906,1.6110959594403198,2.4615273475646973
-6.8353647204600065,-0.9983130636925353,-3.9147934648394767,-3.1698219911956187,-0.49894251600866824,-3.9451806579266986,1.6545721953117152,2.1717329124155924,0.1547549733923006,2.522200584411621
3.6411071669186583,1.1963813852646297,0.45835700539831237,-1.0569314697453365,-2.2256106629280907,0.5179576914861741,1.9091289573329675,-2.8912619413647747,-3.2635435331940243e-07,2.5933642387390137
5.592646464718769,-2.2037087237159767,1.110617330650939,1.1927152191572645,1.7767422303217302,3.7154028468772538,-2.6181713176847268,1.795779973106164,1.076590623433333,2.664130449295044
-4.565096213355531,0.22627797734702426,2.5408368948206714,-1.623955319172893,-0.4051459114239435,-1.3963821734305952,-1.2961829637587812,3.2148695888960503,-5.440323874660521,2.7283434867858887
-56.70872013289785,0.44723769551598025,-0.7361642972426523,2.2332967395877006,-5.094822485310971,-8.934079522080907,-12.631668965234866,-2.9268237649917523,-3.556178037082617,2.79087495803833
-2.740027126984799,-176.30786678385107,-6.332825580566265,-173.39370081817745,-4.404662563311263,-158.4004497455319,7.811442775357335,-143.67816987124672,2.662930204784999,2.8535239696502686
2.5020995987988783,2.6771499264365106,2.2149394144651353,0.40175932747343257,-14.33732339333065,1.8265226638056333,-6.408167352740691,3.028269415644573,3.6770470287252124,2.917177677154541
0.7957228324214043,0.40697505079309515,-14.475519660101952,4.045221251436965,-29.446025427397984,0.18461486714174846,1.4870396933874304,6.669481340677855,5.364473348236146,2.981189250946045
36.46922325661902,176.37633145717228,16.15059635306298,168.426595365301,47.04290445844049,166.20030514369515,4.49266842322848,131.5409346101883,-0.5728335892208065,3.0447940826416016
22.262105031142568,-2.4842885043952947,-1.8585838458328965,2.893533846560814,6.437991505226421,0.6465089985285886,6.595514710594898,4.668726969929281,-4.808898094630166,3.1068153381347656
-5.724349611236278,0.6007116150881302,0.09411485559124344,-2.2723488911544507,-0.6782913393937235,0.7048714170449273,1.5850535324727844,0.0767934243566799,0.19155636969790635,3.1710503101348877
3.1089504242642363,-1.0163885402016888,3.204869187549548,0.40242061112888905,0.6792782167984512,-0.5920221976888342,-3.708176856957209,0.10544131804113022,-4.101914585940335,3.239595413208008
-1.2646009335904864,0.3739591192332341,2.0888769691256925,-0.3199797209974804,-1.2302799170980734,-2.459146866907588,4.344835946238646,0.2512081450505548,4.790700274878986,3.296314239501953
1.4586050782120878,1.202050071924532e-06,-2.3065116243718364,-2.347657456340926,1.8055438377724329,1.0587334232284888,-0.28223045306756944,0.2842252961231111,-0.6057898002250397,3.3608474731445312
4.219955765068789,-1.592833250306228,2.0341934307252245,2.343317767826278,-1.8055422527804126,1.9889864347583455,-2.9698548348855525,0.3036327411189461,-1.5355465940331214,3.426180362701416
-6.2457938870191185,0.8006652647999601,-5.158499923347392,-1.0474615927634545,-0.6088624766460953,-5.098530670120709,3.6673646770247785,-0.6129125651829668,1.2386359660322341,3.495173454284668
3.5739958203779167,-2.51075444113377,2.9163959355494455,2.2565957840441797,2.437651628923817,2.257635267124698,-1.5892207404738201,-4.502288975676294,3.532281571554506,3.5654733180999756
1.4912413362147277,-3.7761637271650557,-1.6060694585272017,-1.5484822898836512,-3.492426269149547,-5.745058793227344,1.8975556702620224,0.8825305305531117,-5.722499941002013,3.6301445960998535
-75.51950508101378,-169.0461522016929,3.5406872472524924,-173.59189117421246,1.867848317881112,-159.5592355860725,-0.07248408337420642,-155.04523973225932,5.388161414057464,3.6981120109558105
3.2641899729826065,34.126196191187105,-25.809893945154784,46.56244511232123,-44.32571569507215,63.43491956117868,-24.673324288306787,61.97236843808348,-23.188085635551374,3.7593259811401367
9.52004376298784,43.65510928762576,-37.70793009981166,53.31324033047169,-50.03151531011113,79.07281099501702,-98.72665624814607,79.89044002508437,-125.70834188897294,3.82239031791687
-1.4803199364654347,-62.41155824490496,25.854927300055053,-87.0628367081832,47.024961963299205,-125.60183236609944,89.5170253251494,-109.7418668665083,128.99474709456643,3.8819422721862793
-0.3242894870901978,2.1831447999196776,15.409154508945704,-5.406671465916691,43.555169289244105,-1.7320225624581909,21.620002057514682,-10.562841763771253,11.709705989195783,3.9492242336273193
64.43666617477199,152.0102930104842,-124.51950768917666,17.834384546619287,-134.48098871877758,147.20129246232136,-141.0956077154981,134.0323675488754,-108.75916469147512,4.012274742126465
-8.376516601175155,6.7502538542999275,144.33339047342716,149.69822944550248,138.09480411109374,4.975473425610403,152.93861418219512,1.1234505598145574,116.13559499882086,4.073405981063843
-4.5373801378216285,0.5266974566617364,-0.12422123060630952,-1.3259380593756873,0.3969313618615331,0.7590152734983633,-1.1665865861710643,-1.7308099182389753,0.6305311700531604,4.13445258140564
-2.3681020249293567,1.8135990017746337,0.892899379091574,1.841480798223671,-2.007047328350552,-0.2144101430189096,-2.5654838455026834,-0.7872939051840433,-4.8897572755520855,4.19985818862915
6.0389188598427666,-2.2179611315673924,0.10031946488672361,0.4657547059944136,3.4736586153325106,1.0408148658012806,3.1193555391594145,0.053714656081780277,4.243059035852127,4.261685371398926
4.184643363729151,2.2288194589802686,-3.906839714406601,-0.8923323416721018,0.27533351416403207,-2.5994444068277858,-0.626883145851707,-7.7651729821732545,-8.026454005087942,4.3257505893707275
7.249385146100423,-121.63892479963602,-14.691936005962987,-20.456913188896294,-7.92396616124276,-8.219302811045566,-2.349901980705596,3.9869659898257055,3.758565108089641,4.390271186828613
-2.0915663969362583,121.13270864658071,20.50035299680681,21.215632409865833,4.826527758399976,9.670225116319244,-1.6150424193343724,6.398370470638241,4.8012062991967355,4.4501731395721436
-0.3092567356897291,-3.9599185723964183,-0.3940199585734092,-7.112972632655925,-1.5609347984640465,0.6717826180218083,1.9504995232441047,1.7596296742096627,-5.59094729698748,4.515013694763184
-8.920215575669658,4.468120438808853,-0.9172455572682736,5.555190738402331,3.552622515484188,-2.1591427740229108,1.8722798518124932,-4.69930903803683,7.464582729047464,4.576026439666748
0.490138751192859,-4.312478178320134,-0.5100387676693856,0.3152878677437343,-3.4517490691744683,2.029472621282139,-0.4332563072217397,4.82366554884868,1.4443800679282788,4.640164852142334
12.5919779940142,0.41011541020859,-4.484750924678991,-130.93873557827067,-16.558787020678665,-113.11566240541303,-17.894459367540378,-0.7124636071211512,-1.3916091826612558,4.70386815071106
-9.37488464462524,1.4705478578001987,5.912035531114043,132.44049000289442,19.31989498001093,113.38568000404926,15.049224526940861,-2.119916364391486,-3.1665155628797663,4.765894412994385
-2.5597683564532474,-118.87640936008574,-24.74151394379541,-91.2515655556484,-31.08228865434907,-77.39768900160253,-31.499737235828007,-15.526267133182643,-19.68491251865882,4.826526165008545
-1.7100464436063874,6.199507575986054,-7.91631010988462,38.04758764296331,6.305993722761656,-24.6394928999095,17.950882759957267,17.154603562783507,14.015722181534585,4.889865875244141
10.008014706741278,113.35724215942597,31.273684709287494,52.66810476034759,22.693211812147467,99.42695990139977,11.444115047661398,-0.8622379329310945,3.007953313251676,4.952955961227417
2.034056811192613,1.6460741211683683,-0.2869546642486114,-3.9071455462572544,0.3542196010335772,-0.7403543335335314,3.4104707587680423,2.6363148362403592,-2.3628924066722163,5.0180065631866455
-6.106761723329328,-2.111213007920952,-1.2690028019605109,2.3324077311072244,2.7998399215819347,-2.805055405024916,1.7207847465828934,-3.170840824445378,3.4822364895850058,5.0799901485443115
-0.8908498319032958,0.4036267332604382,-1.6452352222189575,-1.934422096496121,0.9301537437816307,2.9797815934462903,-0.7752012568396083,2.103750196141391,-2.032867844068761,5.1440229415893555
-6.727069339342933,-0.4351347286111036,1.9144657678303645,2.198605104848326,-0.0017568228184927648,0.7965029490164284,-2.064689304891857,-0.6406333849276393,4.168201091297618,5.20907735824585
3.6355543571835653,-2.7951156024677175,1.7921688151087665,0.5587649537384891,-4.395545333679593,-1.098387854196119,4.06985898278046,-3.4369770334982093,-5.900032712017037,5.273812294006348
0.35337078637607533,0.9719489789127067,-2.811461070891852,1.2446475720464036,-8.524548888999561e-08,3.2346592178231504,0.6566928165377419,4.019582117062384,8.846365710542045,5.333176374435425
2.5619844281306143,-0.4814670861657362,3.5035298038654332,-1.6469924952531017,1.7357046762908794,-1.4404306928401809,-0.9339680045012528,-2.506364364831029,-3.7976395665311884,5.3968892097473145
-0.913041005506102,0.819002445375105,0.18663146410781906,-2.7020654785831653,-4.6090212890703697e-07,1.9263869009778887,-0.8682618961832986,3.441177549273789,0.38692210842728514,5.45982551574707
9.032786484217297,3.253351417728254,-2.9332894153075983,-135.0080662294547,-10.577546079355585,-135.56072785534764,-11.62592229671489,-1.6548444326122933,-1.7879295062962228,5.5254316329956055
-3.2593432733818304,-2.564174708149835,3.173018274304013,137.46165523442005,7.860846078698671,133.16284508689625,11.251835554010654,0.6400156317763503,1.0334455864099539,5.585381746292114
-2.0023670478263114,-0.3640331079848238,0.06807692115711461,-16.1625716306161,-44.018467614013076,-20.46669549305335,-5.710595296440573,-2.5531561936167577,-1.9305836364118818,5.649908542633057
-0.5683699780240659,-0.7556607818388841,-3.328945794199825,16.018517290032634,48.93980913882376,20.58252343510128,6.3568006386810225,2.9027714090050267,2.6254018256179563,5.711990833282471
